!!!COM: Palestrina, Giovanni Perluigi da
!!!OPR: Missa O virgo simul et mater
!!!OTL: Gloria
**kern	**kern	**kern	**kern	**kern
*Ibass	*Itenor	*Icalto	*Icalto	*Icant
!Bassus	!Tenor	!Altus 2	!Altus 1	!Cantus
*clefF4	*clefGv2	*clefG2	*clefG2	*clefG2
*k[b-]	*k[b-]	*k[b-]	*k[b-]	*k[b-]
*G:dor	*G:dor	*G:dor	*G:dor	*G:dor
*M4/2	*M4/2	*M4/2	*M4/2	*M4/2
=1	=1	=1	=1	=1
0r	0r	0r	0r	1g
.	.	.	.	1g
=2	=2	=2	=2	=2
0r	0r	1.d	0r	1.dd
.	.	2d	.	2ff
=3	=3	=3	=3	=3
0r	0r	1.a	0r	2ee
.	.	.	.	2cc
.	.	.	.	2ee
.	.	2cc	.	2ee
=4	=4	=4	=4	=4
0r	1G	2b-	1r	1dd
.	.	2g	.	.
.	1G	2b-	[1d	1gg
.	.	2b-	.	.
=5	=5	=5	=5	=5
1D	1.d	2a	2d]	2.ff
.	.	2.f	2d	.
.	.	.	.	4ee
1D	.	.	1a	2dd
.	.	4e	.	.
.	2f	2d	.	2dd
=6	=6	=6	=6	=6
1.A	2e	4c	2a	1ee
.	.	4A	.	.
.	2c	2.a	1cc	.
.	1e	.	.	1r
.	.	4g	.	.
2c	.	2e	2g	.
=7	=7	=7	=7	=7
2B-	2d	2f	1.b-	0r
2G	2.e	2.g	.	.
2B-	.	.	.	.
.	4d	4f	.	.
2B-	[2d	2d	2g	.
=8	=8	=8	=8	=8
1A	4d]	1e	2a	1r
.	4c#	.	.	.
.	4c#	.	1a	.
.	8B	.	.	.
.	8c#	.	.	.
1r	1d	2.f	.	2r
.	.	.	2b-	2dd
.	.	8e	.	.
.	.	8d	.	.
=9	=9	=9	=9	=9
0r	2r	1a	4cc	2ee
.	.	.	4b-	.
.	1d	.	4a	1ff
.	.	.	4g	.
.	.	2r	2f	.
.	2e	2g	2e	2cc
=10	=10	=10	=10	=10
1r	2f	1a	2d	2dd
.	2c	.	2A	1ee
2r	4d	[1f	[1a	.
.	4e	.	.	.
[2d	4f	.	.	[2dd
.	4g	.	.	.
=11	=11	=11	=11	=11
2d]	2a	2f]	1a]	2dd]
2e	2A	2e	.	2cc
2f	2.a	2d	2r	2dd
2c	.	2A	2e	[2ee
.	4a	.	.	.
=12	=12	=12	=12	=12
1d	2a	[0a	2f	4ee]
.	.	.	.	4dd
.	2f	.	1a	1dd
1A	1e	.	.	.
.	.	.	2e	2cc#
=13	=13	=13	=13	=13
1r	0d	1a]	1f#	0dd
1G	.	1b-	2g	.
.	.	.	2g	.
=14	=14	=14	=14	=14
1.G	2r	1.g	1.b-	2r
.	2d	.	.	2dd
.	[1d	.	.	[1dd
2G	.	2g	2b-	.
=15	=15	=15	=15	=15
2D	2d]	2f	1a	2dd]
1d	2d	2f	.	2dd
.	1A	1e	2r	1ee
2c	.	.	[2a	.
=16	=16	=16	=16	=16
1B-	0r	2f	2a]	2r
.	.	2g	2g	1dd
1A	.	1a	2f	.
.	.	.	2e	2cc
=17	=17	=17	=17	=17
1G	2r	1d	1g	1b-
.	1d	.	.	.
1A	.	1r	2e	2a
.	2c	.	[2a	2e
=18	=18	=18	=18	=18
0r	1B-	2r	2a]	2f
.	.	1dd	2g	4e
.	.	.	.	4d
.	1A	.	2f	1a
.	.	2cc	2e	.
=19	=19	=19	=19	=19
2r	1G	2b-	2.g	0r
1d	.	2b-	.	.
.	.	.	4f	.
.	2A	2a	1e	.
2c	[2a	2e	.	.
=20	=20	=20	=20	=20
2B-	2a]	2f	1d	2r
2B-	2g	2g	.	2dd
1A	2f	1a	2r	2dd
.	2e	.	2a	2cc
=21	=21	=21	=21	=21
1D	2d	2.f	4a	2.dd
.	.	.	4g	.
.	2d	.	4f	.
.	.	4a	4e	4ee
2D	2A	[1a	2d	2ff
2C#	2A	.	2e	2ee
=22	=22	=22	=22	=22
1D	4a	0a]	1f	2.dd
.	4g	.	.	.
.	4f	.	.	.
.	4e	.	.	4cc#
1D	2d	.	1f	1dd
.	2d	.	.	.
=23	=23	=23	=23	=23
1A	1c#	1a	1e	1ee
2r	1r	[1f#	[1d	[1a
[2D	.	.	.	.
=24	=24	=24	=24	=24
2D]	2r	2f#]	2d]	2a]
2D	1d	2f#	2d	2a
1G	.	1g	1d	1b
.	2G	.	.	.
=25	=25	=25	=25	=25
1.C	2G	1.g	1.e	1.cc
.	1c	.	.	.
2C	2c	2g	2e	2cc
=26	=26	=26	=26	=26
1F	1A	1a	1f	1cc
1G	2.B-	1g	1d	1b-
.	8A	.	.	.
.	8G	.	.	.
=27	=27	=27	=27	=27
2D	1d	1a	2f	2a
1d	.	.	1a	1ff
.	1A	1r	.	.
2c	.	.	2a	2ee
=28	=28	=28	=28	=28
2.d	0r	0r	2a	2.ff
.	.	.	2f	.
4c	.	.	.	4ee
2B-	.	.	2g	2dd
2A	.	.	2a	2cc
=29	=29	=29	=29	=29
2G	2r	2r	1d	4b-
.	.	.	.	8a
.	.	.	.	8g
2B-	1d	1f	.	4f
.	.	.	.	4g
1A	.	.	1r	[1a
.	2c	2e	.	.
=30	=30	=30	=30	=30
0r	2.d	2.f	2r	2a]
.	.	.	2a	2f
.	4c	4e	.	.
.	2B-	2d	2g	2g
.	2A	2c	2f	2a
=31	=31	=31	=31	=31
0r	2G	1d	1g	4b-
.	.	.	.	4cc
.	2B-	.	.	1dd
.	1A	1e	[1a	.
.	.	.	.	2cc#
=32	=32	=32	=32	=32
2r	2r	1d	0a]	0dd
2.d	2.f	.	.	.
.	.	2r	.	.
4d	4f	.	.	.
2d	2f	[2a	.	.
=33	=33	=33	=33	=33
2c	2e	4a]	0r	2r
.	.	4a	.	.
2d	2f	2a	.	2.dd
1B-	2.d	2g	.	.
.	.	.	.	4dd
.	.	2f	.	2dd
.	4e	.	.	.
=34	=34	=34	=34	=34
2A	2.f	2a	0r	2cc
1B-	.	2d	.	2dd
.	4e	.	.	.
.	2d	2.f	.	2b-
2A	2c	.	.	[2cc
.	.	8e	.	.
.	.	8f	.	.
=35	=35	=35	=35	=35
1G	2d	2g	0r	4cc]
.	.	.	.	4b-
.	4c	2e	.	1b-
.	4B-	.	.	.
1F	1c	[1f	.	.
.	.	.	.	2a
=36	=36	=36	=36	=36
1B-	2d	0f]	2r	2b-
.	2.B-	.	2.b-	2.dd
1r	.	.	.	.
.	4B-	.	4b-	4dd
.	2B-	.	2b-	2dd
=37	=37	=37	=37	=37
0r	2f	0r	2a	2cc
.	2d	.	2b-	2dd
.	2.e-	.	[1g	[1b-
.	4e-	.	.	.
=38	=38	=38	=38	=38
1r	2d	0r	2g]	2b-]
.	2.d	.	2f#	2a
2r	.	.	2f#	2a
.	4d	.	.	.
[2G	2d	.	[2g	[2b-
=39	=39	=39	=39	=39
4G]	2.B-	2r	4g]	4b-]
4G	.	.	4g	4b-
2G	.	2.d	2g	2b-
.	4c	.	.	.
2.D	4d	.	2.f	1a
.	4e	4d	.	.
.	[2f	2d	.	.
4E	.	.	4g	.
=40	=40	=40	=40	=40
4F	2f]	2.c	4a	1a
4G	.	.	4b-	.
1A	4e	.	1cc	.
.	4d	4d	.	.
.	2c	4e	.	2r
.	.	4f	.	.
2B-	2d	[2g	2b-	2dd
=41	=41	=41	=41	=41
2c	2e	2g]	2a	2cc
2d	1d	2f	2a	4b-
.	.	.	.	4a
2G	.	2.g	4g	1b-
.	.	.	4f	.
2G	[2e	.	4e	.
.	.	4f	4d	.
=42	=42	=42	=42	=42
0A	4e]	2e	2c#	2.a
.	8d	.	.	.
.	8e	.	.	.
.	2f	1d	2d	.
.	.	.	.	4a
.	2e	.	1e	1a
.	2A	2c#	.	.
=43	=43	=43	=43	=43
0B-	2r	2d	2.d	1r
.	1d	1f	.	.
.	.	.	4e	.
.	.	.	1f	[1b-
.	[2B-	2d	.	.
=44	=44	=44	=44	=44
1E-	2B-]	2.e-	1g	2b-]
.	1c	.	.	4a
.	.	4d	.	4g
1F	.	4c	2.f	1a
.	.	4A	.	.
.	[2d	2a	.	.
.	.	.	4e	.
=45	=45	=45	=45	=45
0G	2d]	0g	2d	2b
.	1c	.	2e	2cc
.	.	.	1d	1dd
.	2B	.	.	.
=46	=46	=46	=46	=46
1C	1c	2r	2e	0cc
.	.	2.e	2.g	.
1r	1r	.	.	.
.	.	4e	4g	.
.	.	2f	2a	.
=47	=47	=47	=47	=47
2r	0r	2e	2g	2r
2.c	.	2c	2e	2.ee
.	.	2cc	2g	.
4c	.	.	.	4ee
2d	.	4b-	2f	2ff
.	.	4a	.	.
=48	=48	=48	=48	=48
2c	0r	2.cc	2g	2ee
2A	.	.	2a	2cc
.	.	4b-	.	.
2c	.	4a	2e	2ee
.	.	4g	.	.
2d	.	[2f	[2a	2ff
=49	=49	=49	=49	=49
1B-	1r	2f]	2a]	1dd
.	.	2d	2g	.
1F	2r	2.f	2a	1cc
.	[2f	.	[2a	.
.	.	4e	.	.
=50	=50	=50	=50	=50
0r	4f]	2d	4a]	1dd
.	4f	.	4a	.
.	2g	2G	2b-	.
.	2f	[1d	2a	2dd
.	2d	.	2f	[2ff
=51	=51	=51	=51	=51
0r	2f	2d]	2a	4ff]
.	.	.	.	4ee
.	2g	2G	1b-	1dd
.	1e-	1g	.	.
.	.	.	2g	2cc
=52	=52	=52	=52	=52
2r	1d	1f	2a	2dd
1B-	.	.	1b-	1dd
.	1r	1r	.	.
2c	.	.	2a	2cc
=53	=53	=53	=53	=53
1d	1r	0r	1f	1a
1G	2r	.	1g	1b-
.	[2d	.	.	.
=54	=54	=54	=54	=54
1A	2d]	2r	1e	4a
.	.	.	.	4b-
.	2c	1a	.	4cc
.	.	.	.	4dd
1r	1A	.	1cc	2ee
.	.	2f	.	[2ff
=55	=55	=55	=55	=55
0r	1B-	1d	2f	4ff]
.	.	.	.	4ee
.	.	.	2g	1dd
.	1A	1e	1a	.
.	.	.	.	2cc#
=56	=56	=56	=56	=56
2r	[0d	2d	2f	[0dd
1G	.	1b-	2g	.
.	.	.	4d	.
.	.	.	4e	.
2F	.	2a	4f	.
.	.	.	4g	.
=57	=57	=57	=57	=57
1D	1d_	1f	2a	1dd_
.	.	.	2a	.
1G	1d_	1g	1b-	1dd_
=58	=58	=58	=58	=58
0D	0d]	0f#	0a	0dd]
=59	=59	=59	=59	=59
1d	0r	1r	1f	0r
1d	.	1a	1f	.
=60	=60	=60	=60	=60
1.c	0r	1a	1.e	1r
.	.	[1g	.	2r
2G	.	.	2d	2dd
=61	=61	=61	=61	=61
2B-	0r	2g]	4d	1dd
.	.	.	4e	.
2B-	.	2d	4f	.
.	.	.	4g	.
4A	.	2f	[1a	[1cc
4G	.	.	.	.
4F	.	2f	.	.
4G	.	.	.	.
=62	=62	=62	=62	=62
4A	1r	1e	2a]	2cc]
4B-	.	.	.	.
2c	.	.	2a	2a
1G	2r	1d	1g	2b-
.	2d	.	.	2b-
=63	=63	=63	=63	=63
1D	1d	2r	1.f	2.a
.	.	2a	.	.
.	.	.	.	4b-
1r	[1c	2a	.	2.cc
.	.	[2g	4e	.
.	.	.	4d	4b-
=64	=64	=64	=64	=64
0r	2c]	2g]	2e	4g
.	.	.	.	4a
.	2G	2g	2.d	2.b-
.	2B-	2f	.	.
.	.	.	4e	4cc
.	2B-	2d	4f	[2dd
.	.	.	4g	.
=65	=65	=65	=65	=65
1r	1A	1e	2.a	2dd]
.	.	.	.	2cc#
.	.	.	4g	.
2r	1d	2d	2f	[1dd
[2G	.	[2b-	[2d	.
=66	=66	=66	=66	=66
2G]	2r	2b-]	2d]	1dd]
2G	1d	2b-	2B-	.
1F	.	[1a	1f	1r
.	2d	.	.	.
=67	=67	=67	=67	=67
2F	1.c	2a]	2f	0r
2C	.	2g	2.e-	.
1E-	.	1g	.	.
.	.	.	4d	.
.	2G	.	4B-	.
.	.	.	4c	.
=68	=68	=68	=68	=68
0D	1B-	2f	1d	2r
.	.	1g	.	1dd
.	1A	.	2d	.
.	.	2f	[2a	2dd
=69	=69	=69	=69	=69
1A	0r	2e	2a]	1.cc
.	.	4c	2a	.
.	.	4d	.	.
1c	.	4e	2.g	.
.	.	4f	.	.
.	.	[2e	.	2g
.	.	.	4e	.
=70	=70	=70	=70	=70
2B-	0r	4e]	2f	1b-
.	.	4d	.	.
2G	.	1d	2g	.
2.A	.	.	1e	1a
.	.	2c#	.	.
4G	.	.	.	.
=71	=71	=71	=71	=71
2F	2r	2d	0d	1r
2.G	2g	2b-	.	.
.	1g	1b-	.	1dd
4A	.	.	.	.
4B-	.	.	.	.
4c	.	.	.	.
=72	=72	=72	=72	=72
1d	1.f	1.a	0r	1dd
1r	.	.	.	[1cc
.	2c	2e	.	.
=73	=73	=73	=73	=73
0r	2e-	1g	0r	2cc]
.	2e-	.	.	2g
.	1d	2f	.	2b-
.	.	[2g	.	2b-
=74	=74	=74	=74	=74
1r	1d	2g]	1r	1a
.	.	2f#	.	.
[1D	2r	2r	[1f#	1a
.	[2d	[2a	.	.
=75	=75	=75	=75	=75
2D]	2d]	2a]	2f#]	1.dd
2D	2d	2a	2f#	.
1D	[1d	1a	2.f#	.
.	.	.	.	2dd
.	.	.	4g	.
=76	=76	=76	=76	=76
2r	0d]	2r	2a	0dd
1G	.	2b-	2g	.
.	.	2b-	2g	.
2G	.	[2b-	[2g	.
=77	=77	=77	=77	=77
1d	0r	2b-]	2g]	2r
.	.	2a	2f	2dd
1r	.	2g	2b-	2dd
.	.	2f	2a	[2dd
=78	=78	=78	=78	=78
0r	1r	1e-	1g	2dd]
.	.	.	.	2cc
.	2r	1d	1a	2ff
.	2d	.	.	2ff
=79	=79	=79	=79	=79
1G	2d	1g	1b-	2.dd
.	1d	.	.	.
.	.	.	.	4cc
2G	.	1d	2g	4b-
.	.	.	.	4a
[2G	2B-	.	[2g	[2b-
=80	=80	=80	=80	=80
2G]	2d	2B-	2g]	2b-]
2F	2.f	2c	2a	1a
2B-	.	2d	2d	.
.	4e	.	.	.
2B-	[2d	2G	2d	2g
=81	=81	=81	=81	=81
1A	2d]	2c	1e	1a
.	2c	2A	.	.
1D	1d	2r	1f#	2r
.	.	2d	.	2a
=82	=82	=82	=82	=82
2r	1d	1f#	2r	0dd
2D	.	.	2a	.
1G	1d	1g	1b	.
=83	=83	=83	=83	=83
2C	1c	2g	2cc	2ee
2c	.	1a	2cc	2ee
2.d	1r	.	2a	2.ff
.	.	2f	2b-	.
4d	.	.	.	4dd
=84	=84	=84	=84	=84
2c	0r	2g	4cc	2ee
.	.	.	4b-	.
2.d	.	4f	4a	2.ff
.	.	4e	4g	.
.	.	2.d	1f	.
4c	.	.	.	4ee
4B-	.	.	.	[2dd
4A	.	4c	.	.
=85	=85	=85	=85	=85
1G	0r	1B-	2g	4dd]
.	.	.	.	4cc
.	.	.	4d	1b-
.	.	.	4e	.
1F	.	1c	1f	.
.	.	.	.	2a
=86	=86	=86	=86	=86
1r	1d	1B-	2.f	1b-
.	.	.	4g	.
[1D	1d	2f	[1a	[1dd
.	.	2f	.	.
=87	=87	=87	=87	=87
1D]	2.f	4d	1a]	2dd]
.	.	4e	.	.
.	.	4f	.	2dd
.	4e	4g	.	.
1D	1d	1a	2r	1ff
.	.	.	[2a	.
=88	=88	=88	=88	=88
1F	0c	1f	2a]	2ff
.	.	.	2a	2cc
1C	.	[1g	2cc	1ee-
.	.	.	2g	.
=89	=89	=89	=89	=89
0G	1d	1g]	1b-	1dd
.	2.B-	2d	2g	2r
.	.	[2g	[2b-	[2dd
.	4c	.	.	.
=90	=90	=90	=90	=90
1D	1d	2g]	2b-]	2dd]
.	.	2f#	2a	2dd
1r	1r	2g	2b-	2dd
.	.	2g	2b-	2dd
=91	=91	=91	=91	=91
0r	1r	2c	2cc	2ee-
.	.	2d	2b-	2dd
.	2r	1e-	1g	2b-
.	[2g	.	.	2cc
=92	=92	=92	=92	=92
2r	2g]	1d	1a	1dd
2d	2f	.	.	.
2c#	2e	1r	1a	2r
2d	[2d	.	.	[2dd
=93	=93	=93	=93	=93
2G	4d]	0r	2b-	2dd]
.	4e	.	.	.
2A	2.f	.	2a	2cc
1B-	.	.	2.f	2dd
.	4e	.	.	.
.	[2d	.	.	[2ff
.	.	.	4g	.
=94	=94	=94	=94	=94
1A	2d]	2r	2.a	2ff]
.	2c	1a	.	1ee
.	.	.	4g	.
1r	4d	.	2f	.
.	4c	.	.	.
.	4B-	[2b-	2f	[2dd
.	4A	.	.	.
=95	=95	=95	=95	=95
1r	2G	2b-]	1e	2dd]
.	2A	2a	.	2cc#
2r	2r	2.f	1d	[1dd
2d	2f	.	.	.
.	.	4g	.	.
=96	=96	=96	=96	=96
1d	1f	1a	2r	1dd]
.	.	.	2a	.
2c#	2e	1r	1a	1r
2d	2f	.	.	.
=97	=97	=97	=97	=97
4G	2g	1r	2b-	1dd
4A	.	.	.	.
4B-	4f	.	2b-	.
4c	4e	.	.	.
4d	1f	2r	1a	1dd
4c	.	.	.	.
4d	.	2d	.	.
4e	.	.	.	.
=98	=98	=98	=98	=98
2.f	2f	2a	2a	2cc
.	2B-	1b-	2d	2dd
4d	.	.	.	.
2e-	1r	.	2r	4g
.	.	.	.	4a
2e-	.	2g	[2g	4b-
.	.	.	.	4cc
=99	=99	=99	=99	=99
0d	0r	2b-	2g]	4dd
.	.	.	.	4cc
.	.	2a	2f	4dd
.	.	.	.	4ee
.	.	[1dd	2a	2ff
.	.	.	2b-	[2gg
=100	=100	=100	=100	=100
1r	0d	1dd]	2a	2gg]
.	.	.	2a	2ff#
[1G	.	[1b	1g	1gg
=101	=101	=101	=101	=101
1G]	0g	1b]	1d	1gg
1c	.	[1cc	1e	1ee
=102	=102	=102	=102	=102
2.F	1.a	1cc]	1c	1.ff
4E	.	.	.	.
[1D	.	2.f	[1d	.
.	2g	.	.	2ee
.	.	4g	.	.
=103	=103	=103	=103	=103
0D]	2f	0a	2d]	0dd
.	2e	.	2e	.
.	[1d	.	1f	.
=104	=104	=104	=104	=104
1A	2d]	0a	2e	0ee
.	4c	.	1e	.
.	4B	.	.	.
1A	2.c	.	.	.
.	.	.	[2a	.
.	4A	.	.	.
=105	=105	=105	=105	=105
1.d	1B-	2r	2a]	0r
.	.	2d	2g	.
.	1A	2.a	2f	.
2c	.	.	2e	.
.	.	4a	.	.
=106	=106	=106	=106	=106
2B-	0r	2g	2d	1r
2A	.	2f	2.c	.
2.G	.	4e	.	2r
.	.	4d	4B-	.
.	.	[2d	4B-	2dd
4F	.	.	4A	.
=107	=107	=107	=107	=107
1E	2r	2d]	1G	1.gg
.	2G	2c	.	.
1D	[1d	2B-	2r	.
.	.	4A	2d	4ff
.	.	4G	.	4ee
=108	=108	=108	=108	=108
0r	2d]	1A	2.a	2ff
.	2c	.	.	2ee
.	.	.	8g	.
.	.	.	8a	.
.	2B-	1f	2b-	2dd
.	2A	.	2f	[2cc
=109	=109	=109	=109	=109
0r	1G	2B-	2g	4cc]
.	.	.	.	4b-
.	.	2B-	2e	1b-
.	1F	2c	[1f	.
.	.	2c	.	2a
=110	=110	=110	=110	=110
1r	0B-	2d	1f]	1b-
.	.	1d	.	.
1G	.	.	2r	1dd
.	.	[2b-	2g	.
=111	=111	=111	=111	=111
1.d	0r	2b-]	1f	1.ff
.	.	2a	.	.
.	.	2f	2d	.
2c	.	2g	2e	2ee
=112	=112	=112	=112	=112
2A	0r	2a	1f	2cc
1B-	.	2.d	.	1dd
.	.	.	2g	.
.	.	4e	.	.
2A	.	4f	2a	2cc
.	.	8e	.	.
.	.	8f	.	.
=113	=113	=113	=113	=113
1G	2r	1g	1d	1b-
.	2d	.	.	.
1F	[1f	1c	2r	2a
.	.	.	2a	4f
.	.	.	.	4g
=114	=114	=114	=114	=114
0r	2f]	2r	1.cc	4a
.	.	.	.	4b-
.	2e	1g	.	4cc
.	.	.	.	4dd
.	2c	.	.	4ee
.	.	.	.	4cc
.	[2d	2f	2a	[2ff
=115	=115	=115	=115	=115
0r	2d]	2d	2f	2ff]
.	2c	2e	1g	2ee
.	2B-	1g	.	1dd
.	2B-	.	2d	.
=116	=116	=116	=116	=116
0r	0A	1a	2f	2cc
.	.	.	2f	1dd
.	.	2r	1e	.
.	.	[2e	.	4cc
.	.	.	.	4b-
=117	=117	=117	=117	=117
2r	1A	2e]	2.a	1cc
2A	.	1f	.	.
.	.	.	4g	.
[1B-	1d	.	1f	[1dd
.	.	2d	.	.
=118	=118	=118	=118	=118
2B-]	1.f	2B-	2r	2dd]
2A	.	2c	1a	4cc
.	.	.	.	4b-
2F	.	1d	.	2a
[2G	2d	.	[2b-	2g
=119	=119	=119	=119	=119
2G]	2B-	2G	2b-]	0r
2F	1c	2A	2a	.
2E-	.	1c	2g	.
2E-	2G	.	2g	.
=120	=120	=120	=120	=120
0D	2A	0d	2f#	1r
.	2B-	.	1g	.
.	1A	.	.	2r
.	.	.	2f#	2dd
=121	=121	=121	=121	=121
1G	[0G	2r	0g	2ee-
.	.	2d	.	2dd
2r	.	2e-	.	2.b-
[2G	.	2d	.	.
.	.	.	.	4cc
=122	=122	=122	=122	=122
2G]	0G]	2B-	[0g	2dd
2C	.	1c	.	1ee-
2C	.	.	.	.
2BB	.	2d	.	2dd
=123	=123	=123	=123	=123
0C	[0G	2.e-	1g_	2cc
.	.	.	.	2g
.	.	4c	.	.
.	.	1e-	1g_	1cc
=124	=124	=124	=124	=124
0G	0G]	0d	0g]	0b
==	==	==	==	==
*-	*-	*-	*-	*-
!!!CDT: 1525/^1526/-1594/2/2
!!!OCY: Italia
!!!AGN: Mass (Parody)
!!!AST: renaissance, vocal
!!!ASW: Motet 1572 (Palestrina)
!!!PWK: Masses, Book 10
!!!RNB: Cadence finals: D
!!!YOR: Le Opere Complete, v. 27, p. 89
!!!YOO: Rome, Italy: Fratelli Scalera
!!!END: 1992//
!!!EED: John Miller
!!!YEC: Copyright 2000, John Miller
!!!YEN: United States of America
!!!YEM: Rights to all derivative electronic formats reserved.
!!!YEM: Refer to licensing agreement for further details.
!!!YEM: This file must be accompanied by the licensing agreement.
!!!YEM: A copy of the licensing agreement may be found at http://www.music-cog.ohio-state.edu/HumdrumDatabases/Palestrina/license.txt
!!!EMD: converted to Humdrum by Bret Aarden
